; generated by Slic3r 0.9.10-dev on 2013-05-16 at 08:05:21

; layer_height = 0.2
; perimeters = 2
; top_solid_layers = 16
; bottom_solid_layers = 16
; fill_density = .3
; perimeter_speed = 90
; infill_speed = 90
; travel_speed = 180
; nozzle_diameter = 0.35
; filament_diameter = 3
; extrusion_multiplier = 1
; perimeters extrusion width = 0.43mm
; infill extrusion width = 0.43mm
; solid infill extrusion width = 0.43mm
; top infill extrusion width = 0.50mm
; first layer extrusion width = 0.43mm

G21 ; set units to millimeters
M107
G21
G90
G92 X0 Y0 Z0 E0
G90 ; use absolute coordinates
G92 E0
M82 ; use absolute distances for extrusion
G1 F1800.000 E-0.75000
G92 E0
G1 Z0.200 F10800.000
G1 X99.260 Y124.401
G1 F1800.000 E0.75000
G1 X100.000 Y123.851 F1800.000 E0.76077
G1 X100.500 Y123.521 E0.76777
G1 X101.290 Y123.041 E0.77857
G1 X102.130 Y122.581 E0.78975
G1 X102.600 Y122.351 E0.79586
G1 X103.450 Y121.981 E0.80669
G1 X104.760 Y121.511 E0.82295
G1 X105.310 Y121.341 E0.82967
G1 X106.210 Y121.121 E0.84050
G1 X107.110 Y120.941 E0.85122
G1 X107.750 Y120.851 E0.85877
G1 X109.080 Y120.731 E0.87436
G1 X109.690 Y120.711 E0.88149
G1 X110.560 Y120.721 E0.89166
G1 X111.960 Y120.811 E0.90804
G1 X112.570 Y120.891 E0.91523
G1 X114.390 Y121.271 E0.93695
G1 X115.270 Y121.521 E0.94763
G1 X115.790 Y121.691 E0.95402
G1 X116.710 Y122.051 E0.96556
G1 X117.540 Y122.421 E0.97618
G1 X118.000 Y122.651 E0.98218
G1 X118.920 Y123.171 E0.99453
G1 X119.690 Y123.661 E1.00519
G1 X120.500 Y124.231 E1.01676
G1 X120.920 Y124.561 E1.02300
G1 X121.930 Y125.441 E1.03865
G1 X122.370 Y125.871 E1.04583
G1 X123.270 Y126.861 E1.06146
G1 X123.610 Y127.271 E1.06768
G1 X124.170 Y128.011 E1.07852
G1 X124.490 Y128.471 E1.08507
G1 X124.980 Y129.251 E1.09583
G1 X125.260 Y129.741 E1.10242
G1 X125.680 Y130.561 E1.11318
G1 X126.230 Y131.821 E1.12924
G1 X126.550 Y132.741 E1.14062
G1 X126.850 Y133.741 E1.15281
G1 X127.060 Y134.641 E1.16361
G1 X127.240 Y135.751 E1.17674
G1 X127.340 Y136.601 E1.18674
G1 X127.380 Y137.181 E1.19353
G1 X127.400 Y138.451 E1.20837
G1 X127.370 Y139.281 E1.21807
G1 X126.400 Y153.311 E1.38234
G1 X126.160 Y154.661 E1.39836
G1 X125.630 Y155.931 E1.41443
G1 X124.850 Y157.061 E1.43047
G1 X123.850 Y158.001 E1.44650
G1 X122.670 Y158.701 E1.46253
G1 X121.370 Y159.141 E1.47856
G1 X120.000 Y159.281 E1.49464
G1 X99.990 Y159.281 E1.72838
G1 X98.620 Y159.141 E1.74446
G1 X97.320 Y158.701 E1.76049
G1 X96.140 Y158.001 E1.77652
G1 X95.140 Y157.061 E1.79255
G1 X94.350 Y155.931 E1.80865
G1 X93.830 Y154.661 E1.82468
G1 X93.590 Y153.311 E1.84070
G1 X92.600 Y138.851 E2.01000
G1 X92.600 Y137.431 E2.02659
G1 X92.620 Y136.981 E2.03185
G1 X92.720 Y135.951 E2.04394
G1 X92.880 Y134.961 E2.05565
G1 X93.150 Y133.701 E2.07070
G1 X93.480 Y132.571 E2.08445
G1 X93.790 Y131.741 E2.09480
G1 X94.150 Y130.881 E2.10569
G1 X94.840 Y129.541 E2.12330
G1 X95.120 Y129.061 E2.12979
G1 X95.620 Y128.291 E2.14051
G1 X96.430 Y127.191 E2.15647
G1 X96.820 Y126.721 E2.16360
G1 X97.760 Y125.721 E2.17963
G1 X98.190 Y125.311 E2.18657
G1 X99.212 Y124.440 E2.20226
G1 X100.000 Y123.851 F10800.000 E2.03828
G1 X100.500 Y123.521 E1.93843
G1 X101.290 Y123.041 E1.78437
G1 X102.130 Y122.581 E1.62475
G1 X102.600 Y122.351 E1.53754
G1 X103.069 Y122.147 E1.45226
G92 E0
G1 X104.693 Y131.330
G1 F1800.000 E0.75000
M204 S1500
G1 X105.387 Y130.836 F1800.000 E0.75995
G1 X106.122 Y130.422 E0.76979
G1 X106.896 Y130.077 E0.77969
G1 X107.496 Y129.872 E0.78710
G1 X108.103 Y129.712 E0.79443
G1 X108.943 Y129.562 E0.80440
G1 X109.788 Y129.502 E0.81430
G1 X110.708 Y129.528 E0.82505
G1 X111.473 Y129.629 E0.83407
G1 X112.298 Y129.811 E0.84393
G1 X113.101 Y130.077 E0.85381
G1 X113.491 Y130.240 E0.85874
G1 X114.060 Y130.517 E0.86614
G1 X114.787 Y130.953 E0.87604
G1 X115.467 Y131.457 E0.88593
G1 X115.939 Y131.875 E0.89329
G1 X116.523 Y132.489 E0.90319
G1 X116.924 Y132.987 E0.91065
G1 X117.162 Y133.324 E0.91548
G1 X117.498 Y133.866 E0.92293
G1 X117.880 Y134.626 E0.93287
G1 X118.115 Y135.215 E0.94027
G1 X118.307 Y135.822 E0.94770
G1 X118.410 Y136.231 E0.95264
G1 X118.527 Y136.855 E0.96004
G1 X118.608 Y137.692 E0.96987
G1 X118.608 Y138.548 E0.97987
G1 X118.527 Y139.384 E0.98969
G1 X118.410 Y140.009 E0.99711
G1 X118.183 Y140.823 E1.00698
G1 X117.881 Y141.609 E1.01682
G1 X117.602 Y142.185 E1.02430
G1 X117.162 Y142.910 E1.03419
G1 X116.923 Y143.255 E1.03910
G1 X116.659 Y143.589 E1.04407
G1 X116.383 Y143.912 E1.04904
G1 X115.981 Y144.327 E1.05579
G1 X115.980 Y144.401 E1.05664
G1 X115.741 Y144.545 E1.05990
G1 X115.128 Y145.048 E1.06916
G1 X114.609 Y145.402 E1.07650
G1 X114.255 Y145.616 E1.08133
G1 X113.684 Y145.913 E1.08885
G1 X112.904 Y146.234 E1.09870
G1 X112.297 Y146.429 E1.10615
G1 X111.885 Y146.532 E1.11111
G1 X111.265 Y146.646 E1.11848
G1 X110.419 Y146.727 E1.12840
G1 X110.000 Y146.740 E1.13330
G1 X109.573 Y146.727 E1.13829
G1 X108.943 Y146.676 E1.14567
G1 X108.521 Y146.612 E1.15066
G1 X107.703 Y146.428 E1.16046
G1 X106.896 Y146.159 E1.17039
G1 X106.122 Y145.820 E1.18026
G1 X105.383 Y145.401 E1.19018
G1 X104.833 Y145.026 E1.19796
G1 X104.084 Y144.395 E1.20940
G1 X103.461 Y143.736 E1.22000
G1 X103.082 Y143.263 E1.22708
G1 X102.828 Y142.903 E1.23222
G1 X102.395 Y142.183 E1.24203
G1 X101.955 Y141.225 E1.25434
G1 X101.752 Y140.626 E1.26174
G1 X101.584 Y140.003 E1.26927
G1 X101.472 Y139.391 E1.27654
G1 X101.421 Y138.957 E1.28164
G1 X101.387 Y138.545 E1.28647
G1 X101.381 Y138.117 E1.29147
G1 X101.387 Y137.695 E1.29640
G1 X101.421 Y137.281 E1.30125
G1 X101.472 Y136.849 E1.30634
G1 X101.584 Y136.238 E1.31359
G1 X101.753 Y135.613 E1.32115
G1 X101.955 Y135.016 E1.32851
G1 X102.393 Y134.060 E1.34080
G1 X102.827 Y133.331 E1.35071
G1 X103.336 Y132.647 E1.36066
G1 X103.755 Y132.176 E1.36803
G1 X104.051 Y131.878 E1.37294
G1 X104.645 Y131.368 E1.38208
M204 S2500
G1 X104.950 Y131.653 F10800.000
M204 S1500
G1 X105.606 Y131.186 F1800.000 E1.39149
G1 X106.307 Y130.791 E1.40089
G1 X107.044 Y130.462 E1.41031
G1 X107.811 Y130.210 E1.41975
G1 X108.597 Y130.036 E1.42915
G1 X108.993 Y129.972 E1.43383
G1 X109.397 Y129.933 E1.43858
G1 X110.201 Y129.915 E1.44797
G1 X111.001 Y129.972 E1.45734
G1 X111.799 Y130.114 E1.46680
G1 X112.574 Y130.327 E1.47620
G1 X113.322 Y130.617 E1.48556
G1 X114.048 Y130.980 E1.49504
G1 X114.724 Y131.410 E1.50441
G1 X115.360 Y131.906 E1.51382
G1 X115.802 Y132.320 E1.52090
G1 X116.341 Y132.910 E1.53023
G1 X116.821 Y133.557 E1.53964
G1 X117.139 Y134.071 E1.54670
G1 X117.503 Y134.795 E1.55617
G1 X117.726 Y135.354 E1.56320
G1 X117.909 Y135.931 E1.57027
G1 X118.007 Y136.322 E1.57498
G1 X118.118 Y136.914 E1.58201
G1 X118.196 Y137.715 E1.59142
G1 X118.196 Y138.525 E1.60087
G1 X118.118 Y139.325 E1.61026
G1 X118.007 Y139.918 E1.61732
G1 X117.909 Y140.309 E1.62203
G1 X117.726 Y140.887 E1.62910
G1 X117.416 Y141.630 E1.63850
G1 X117.039 Y142.338 E1.64788
G1 X116.590 Y143.009 E1.65731
G1 X116.079 Y143.632 E1.66672
G1 X115.573 Y144.140 E1.67510
G1 X115.572 Y144.165 E1.67539
G1 X114.885 Y144.714 E1.68566
G1 X114.388 Y145.053 E1.69269
G1 X114.048 Y145.259 E1.69734
G1 X113.508 Y145.540 E1.70444
G1 X112.765 Y145.845 E1.71383
G1 X112.188 Y146.030 E1.72090
G1 X111.796 Y146.129 E1.72562
G1 X111.204 Y146.237 E1.73266
G1 X110.396 Y146.315 E1.74214
G1 X109.596 Y146.315 E1.75148
G1 X108.993 Y146.266 E1.75855
G1 X108.595 Y146.206 E1.76325
G1 X107.812 Y146.030 E1.77263
G1 X107.044 Y145.774 E1.78209
G1 X106.307 Y145.451 E1.79148
G1 X105.605 Y145.053 E1.80091
G1 X105.096 Y144.706 E1.80811
G1 X104.635 Y144.335 E1.81502
G1 X104.348 Y144.075 E1.81953
G1 X103.781 Y143.475 E1.82918
G1 X103.289 Y142.846 E1.83851
G1 X102.959 Y142.339 E1.84557
G1 X102.760 Y141.990 E1.85027
G1 X102.340 Y141.074 E1.86204
G1 X102.147 Y140.504 E1.86907
G1 X101.988 Y139.916 E1.87618
G1 X101.880 Y139.327 E1.88318
G1 X101.832 Y138.920 E1.88797
G1 X101.800 Y138.524 E1.89261
G1 X101.794 Y138.117 E1.89736
G1 X101.800 Y137.716 E1.90204
G1 X101.832 Y137.318 E1.90671
G1 X101.880 Y136.912 E1.91149
G1 X101.988 Y136.324 E1.91847
G1 X102.147 Y135.736 E1.92559
G1 X102.340 Y135.166 E1.93261
G1 X102.759 Y134.251 E1.94437
G1 X103.172 Y133.559 E1.95378
G1 X103.655 Y132.910 E1.96323
G1 X104.054 Y132.461 E1.97025
G1 X104.337 Y132.176 E1.97494
G1 X104.901 Y131.691 E1.98363
M204 S2500
G1 X105.330 Y131.814 F10800.000
G1 X105.606 Y131.186 E1.86932
G1 X106.307 Y130.791 E1.73522
G1 X107.044 Y130.462 E1.60080
G1 X107.811 Y130.210 E1.46613
G1 X108.597 Y130.036 E1.33204
G1 X108.993 Y129.972 E1.26517
G1 X109.181 Y129.954 E1.23363
G92 E0
G1 X103.953 Y129.685
G1 F1800.000 E0.75000
M204 S1500
G1 X104.432 Y129.359 F1800.000 E0.75677
G1 X104.929 Y129.060 E0.76354
G1 X105.701 Y128.671 E0.77364
G1 X106.502 Y128.347 E0.78374
G1 X107.057 Y128.163 E0.79057
G1 X107.614 Y128.016 E0.79729
G1 X108.180 Y127.900 E0.80404
G1 X108.756 Y127.812 E0.81085
G1 X109.620 Y127.748 E0.82097
G1 X110.484 Y127.750 E0.83107
G1 X111.072 Y127.793 E0.83795
G1 X111.641 Y127.868 E0.84465
G1 X112.494 Y128.042 E0.85482
G1 X113.055 Y128.199 E0.86163
G1 X113.603 Y128.387 E0.86840
G1 X114.131 Y128.597 E0.87504
G1 X114.658 Y128.845 E0.88184
G1 X115.422 Y129.267 E0.89203
G1 X115.906 Y129.583 E0.89878
G1 X116.374 Y129.926 E0.90556
G1 X116.819 Y130.296 E0.91232
G1 X117.246 Y130.687 E0.91909
G1 X117.843 Y131.320 E0.92925
G1 X118.207 Y131.768 E0.93599
G1 X118.550 Y132.237 E0.94278
G1 X119.013 Y132.970 E0.95291
G1 X119.284 Y133.484 E0.95969
G1 X119.530 Y134.009 E0.96646
G1 X119.841 Y134.822 E0.97663
G1 X120.011 Y135.370 E0.98334
G1 X120.201 Y136.216 E0.99346
G1 X120.296 Y136.793 E1.00029
G1 X120.371 Y137.653 E1.01038
G1 X120.381 Y138.236 E1.01719
G1 X120.358 Y138.811 E1.02390
G1 X120.303 Y139.394 E1.03075
G1 X120.158 Y140.246 E1.04084
G1 X120.023 Y140.812 E1.04764
G1 X119.859 Y141.369 E1.05442
G1 X119.665 Y141.908 E1.06111
G1 X119.381 Y142.569 E1.06952
G1 X119.381 Y152.260 E1.18271
G1 X100.617 Y152.260 E1.40188
G1 X100.617 Y142.570 E1.51507
G1 X100.341 Y141.929 E1.52322
G1 X100.069 Y141.144 E1.53293
G1 X99.855 Y140.331 E1.54275
G1 X99.751 Y139.786 E1.54923
G1 X99.676 Y139.230 E1.55578
G1 X99.619 Y138.401 E1.56549
G1 X99.632 Y137.541 E1.57553
G1 X99.719 Y136.677 E1.58567
G1 X99.875 Y135.826 E1.59578
G1 X100.097 Y134.983 E1.60597
G1 X100.400 Y134.166 E1.61614
G1 X100.634 Y133.632 E1.62295
G1 X101.045 Y132.867 E1.63309
G1 X101.508 Y132.139 E1.64317
G1 X101.859 Y131.673 E1.64998
G1 X102.229 Y131.237 E1.65667
G1 X102.832 Y130.607 E1.66686
G1 X103.489 Y130.033 E1.67704
G1 X103.902 Y129.721 E1.68309
M204 S2500
G1 X103.709 Y129.352 F10800.000
M204 S1500
G1 X104.210 Y129.010 F1800.000 E1.69017
G1 X104.727 Y128.700 E1.69721
G1 X105.531 Y128.295 E1.70773
G1 X106.366 Y127.957 E1.71825
G1 X106.940 Y127.767 E1.72531
G1 X107.518 Y127.614 E1.73230
G1 X108.108 Y127.494 E1.73933
G1 X108.708 Y127.402 E1.74642
G1 X109.604 Y127.335 E1.75692
G1 X110.506 Y127.337 E1.76745
G1 X111.114 Y127.382 E1.77457
G1 X111.707 Y127.461 E1.78156
G1 X112.595 Y127.642 E1.79215
G1 X113.176 Y127.804 E1.79919
G1 X113.745 Y127.999 E1.80622
G1 X114.299 Y128.220 E1.81318
G1 X114.842 Y128.476 E1.82019
G1 X115.638 Y128.915 E1.83082
G1 X116.142 Y129.244 E1.83784
G1 X116.627 Y129.600 E1.84487
G1 X117.090 Y129.985 E1.85191
G1 X117.534 Y130.391 E1.85893
G1 X118.156 Y131.050 E1.86952
G1 X118.534 Y131.516 E1.87653
G1 X118.890 Y132.002 E1.88357
G1 X119.373 Y132.767 E1.89413
G1 X119.653 Y133.299 E1.90115
G1 X119.909 Y133.845 E1.90820
G1 X120.232 Y134.689 E1.91875
G1 X120.409 Y135.261 E1.92575
G1 X120.607 Y136.142 E1.93629
G1 X120.705 Y136.740 E1.94337
G1 X120.784 Y137.639 E1.95391
G1 X120.793 Y138.239 E1.96092
G1 X120.770 Y138.838 E1.96793
G1 X120.713 Y139.443 E1.97503
G1 X120.620 Y140.042 E1.98211
G1 X120.497 Y140.627 E1.98909
G1 X120.252 Y141.496 E1.99964
G1 X120.049 Y142.057 E2.00660
G1 X119.794 Y142.656 E2.01421
G1 X119.794 Y152.673 E2.13121
G1 X100.204 Y152.673 E2.36003
G1 X100.204 Y142.656 E2.47703
G1 X99.855 Y141.814 E2.48768
G1 X99.673 Y141.262 E2.49446
G1 X99.452 Y140.420 E2.50463
G1 X99.344 Y139.852 E2.51139
G1 X99.265 Y139.275 E2.51820
G1 X99.206 Y138.410 E2.52831
G1 X99.220 Y137.516 E2.53876
G1 X99.310 Y136.618 E2.54931
G1 X99.473 Y135.735 E2.55980
G1 X99.703 Y134.859 E2.57037
G1 X100.019 Y134.007 E2.58098
G1 X100.261 Y133.454 E2.58803
G1 X100.688 Y132.659 E2.59857
G1 X101.171 Y131.900 E2.60908
G1 X101.534 Y131.419 E2.61613
G1 X101.922 Y130.961 E2.62313
G1 X102.547 Y130.308 E2.63369
G1 X103.229 Y129.712 E2.64428
G1 X103.659 Y129.388 E2.65056
M204 S2500
G1 X104.084 Y129.525 F10800.000
G1 X104.188 Y129.890
M204 S2500
G1 X104.852 Y130.839 F1800.000 E2.66409
M204 S2500
G1 X105.195 Y130.605 F10800.000
M204 S2500
G1 X104.532 Y129.658 F1800.000 E2.67760
M204 S2500
G1 X104.885 Y129.439 F10800.000
M204 S2500
G1 X105.551 Y130.389 F1800.000 E2.69114
M204 S2500
G1 X105.923 Y130.197 F10800.000
M204 S2500
G1 X105.247 Y129.231 F1800.000 E2.70491
M204 S2500
G1 X105.621 Y129.041 F10800.000
M204 S2500
G1 X106.298 Y130.008 F1800.000 E2.71870
M204 S2500
G1 X106.692 Y129.847 F10800.000
M204 S2500
G1 X106.008 Y128.871 F1800.000 E2.73261
M204 S2500
G1 X106.399 Y128.705 F10800.000
M204 S2500
G1 X107.091 Y129.693 F1800.000 E2.74671
M204 S2500
G1 X107.508 Y129.566 F10800.000
M204 S2500
G1 X106.807 Y128.565 F1800.000 E2.76099
M204 S2500
G1 X107.219 Y128.429 F10800.000
M204 S2500
G1 X107.933 Y129.448 F1800.000 E2.77552
M204 S2500
G1 X108.377 Y129.359 F10800.000
M204 S2500
G1 X107.647 Y128.316 F1800.000 E2.79039
M204 S2500
G1 X108.092 Y128.228 F10800.000
M204 S2500
G1 X108.828 Y129.279 F1800.000 E2.80537
M204 S2500
G1 X109.305 Y129.236 F10800.000
M204 S2500
G1 X108.540 Y128.144 F1800.000 E2.82094
M204 S2500
G1 X109.013 Y128.095 F10800.000
M204 S2500
G1 X109.788 Y129.203 F1800.000 E2.83674
M204 S2500
G1 X110.298 Y129.207 F10800.000
M204 S2500
G1 X109.491 Y128.055 F1800.000 E2.85316
M204 S2500
G1 X109.987 Y128.039 F10800.000
M204 S2500
G1 X110.824 Y129.235 F1800.000 E2.87021
M204 S2500
G1 X111.391 Y129.321 F10800.000
M204 S2500
G1 X110.507 Y128.058 F1800.000 E2.88821
M204 S2500
G1 X111.037 Y128.091 F10800.000
M204 S2500
G1 X111.969 Y129.423 F1800.000 E2.90721
M204 S2500
G1 X112.597 Y129.595 F10800.000
M204 S2500
G1 X111.595 Y128.164 F1800.000 E2.92761
M204 S2500
G1 X112.186 Y128.284 F10800.000
M204 S2500
G1 X113.271 Y129.834 F1800.000 E2.94971
M204 S2500
G1 X114.010 Y130.166 F10800.000
M204 S2500
G1 X112.805 Y128.445 F1800.000 E2.97424
M204 S2500
G1 X113.458 Y128.654 F10800.000
M204 S2500
G1 X114.856 Y130.651 F1800.000 E3.00272
M204 S2500
G1 X115.875 Y129.934 F10800.000
M204 S2500
G1 X119.709 Y135.410 F1800.000 E3.08080
M204 S2500
G1 X119.938 Y136.461 F10800.000
M204 S2500
G1 X114.953 Y129.342 F1800.000 E3.18232
M204 S2500
G1 X114.175 Y128.954 F10800.000
M204 S2500
G1 X115.943 Y131.478 F1800.000 E3.21832
M204 S2500
G1 X117.121 Y130.990 F10800.000
M204 S2500
G1 X119.141 Y133.875 F1800.000 E3.25946
M204 S2500
G1 X118.274 Y134.808 F10800.000
M204 S2500
G1 X120.051 Y137.346 F1800.000 E3.29565
M204 S2500
G1 X120.077 Y138.107 F10800.000
M204 S2500
G1 X118.679 Y136.110 F1800.000 E3.32413
M204 S2500
G1 X118.854 Y137.084 F10800.000
M204 S2500
G1 X120.058 Y138.804 F1800.000 E3.34866
M204 S2500
G1 X119.994 Y139.436 F10800.000
M204 S2500
G1 X118.916 Y137.896 F1800.000 E3.37061
M204 S2500
G1 X118.897 Y138.593 F10800.000
M204 S2500
G1 X119.897 Y140.021 F1800.000 E3.39097
M204 S2500
G1 X119.775 Y140.570 F10800.000
M204 S2500
G1 X118.845 Y139.242 F1800.000 E3.40991
M204 S2500
G1 X118.745 Y139.824 F10800.000
M204 S2500
G1 X119.631 Y141.088 F1800.000 E3.42795
M204 S2500
G1 X119.468 Y141.579 F10800.000
M204 S2500
G1 X118.620 Y140.369 F1800.000 E3.44520
M204 S2500
G1 X118.476 Y140.886 F10800.000
M204 S2500
G1 X119.279 Y142.033 F1800.000 E3.46156
M204 S2500
G1 X119.090 Y142.487 F10800.000
M204 S2500
G1 X118.298 Y141.356 F1800.000 E3.47769
M204 S2500
G1 X118.113 Y141.816 F10800.000
M204 S2500
G1 X119.082 Y143.199 F1800.000 E3.49741
M204 S2500
G1 X119.082 Y143.923 F10800.000
M204 S2500
G1 X117.906 Y142.244 F1800.000 E3.52135
M204 S2500
G1 X117.680 Y142.644 F10800.000
M204 S2500
G1 X119.082 Y144.646 F1800.000 E3.54991
M204 S2500
G1 X119.082 Y145.370 F10800.000
M204 S2500
G1 X117.441 Y143.028 F1800.000 E3.58331
M204 S2500
